svg/filter_variant_remove.svg

<svg xmlns="http://www.w3.org/2000/svg" viewBox="0 0 24 24"><path d="M21 8H3V6h18zm-7.19 8H10v2h3.09c.12-.72.37-1.39.72-2M18 11H6v2h12zm3.12 4.46L19 17.59l-2.12-2.13-1.41 1.42L17.59 19l-2.12 2.12 1.41 1.42L19 20.41l2.12 2.13 1.42-1.42L20.41 19l2.13-2.12z"/></svg>

<?xml version="1.0" encoding="UTF-8"?><!DOCTYPE svg PUBLIC "-//W3C//DTD SVG 1.1//EN" "http://www.w3.org/Graphics/SVG/1.1/DTD/svg11.dtd"><svg xmlns="http://www.w3.org/2000/svg" xmlns:xlink="http://www.w3.org/1999/xlink" version="1.1" id="mdi-filter-variant-remove" width="24" height="24" viewBox="0 0 24 24"><path d="M21 8H3V6H21V8M13.81 16H10V18H13.09C13.21 17.28 13.46 16.61 13.81 16M18 11H6V13H18V11M21.12 15.46L19 17.59L16.88 15.46L15.47 16.88L17.59 19L15.47 21.12L16.88 22.54L19 20.41L21.12 22.54L22.54 21.12L20.41 19L22.54 16.88L21.12 15.46Z" /></svg>
